src/Static/Positions/ks-position-37.svg

<?xml version="1.0" encoding="UTF-8"?>
<svg width="167px" height="239px" viewBox="0 0 167 239" version="1.1" xmlns="http://www.w3.org/2000/svg" xmlns:xlink="http://www.w3.org/1999/xlink">
    <title>sex-etsy-37</title>
    <defs>
        <path d="M143.1763,115.7441 L128.9153,177.2719 L73.9017,177.2719 L73.9017,182.2719 L76.6589,182.2719 L68.4408,228.5014 L73.3627,229.3764 L80.9965,186.4389 L125.807,186.4389 L133.4408,229.3764 L138.3627,228.5014 L130.1446,182.2719 L132.8881,182.2719 L148.3117,115.7325 C148.2348,115.7345 148.1598,115.7441 148.0825,115.7441 L143.1763,115.7441 Z" id="path-1"></path>
        <filter x="-9.5%" y="-4.9%" width="118.9%" height="113.3%" filterUnits="objectBoundingBox" id="filter-2">
            <feMorphology radius="0.5" operator="dilate" in="SourceAlpha" result="shadowSpreadOuter1"></feMorphology>
            <feOffset dx="0" dy="2" in="shadowSpreadOuter1" result="shadowOffsetOuter1"></feOffset>
            <feGaussianBlur stdDeviation="2" in="shadowOffsetOuter1" result="shadowBlurOuter1"></feGaussianBlur>
            <feComposite in="shadowBlurOuter1" in2="SourceAlpha" operator="out" result="shadowBlurOuter1"></feComposite>
            <feColorMatrix values="0 0 0 0 0   0 0 0 0 0   0 0 0 0 0  0 0 0 1 0" type="matrix" in="shadowBlurOuter1"></feColorMatrix>
        </filter>
        <path d="M114.5599,20.6346 C106.9746,19.2163 97.202,20.4889 90.9493,36.3678 C84.8045,51.9728 78.5585,52.233 74.4545,50.2856 C70.3505,48.3383 77.208,60.6021 91.2193,54.5419 C102.0175,49.8714 104.011,30.5311 111.4822,27.839 C111.8164,26.4702 112.27,25.112 112.8638,23.7805 C113.3573,22.6744 113.9261,21.6253 114.5599,20.6346 Z" id="path-3"></path>
        <filter x="-20.6%" y="-18.0%" width="143.7%" height="147.2%" filterUnits="objectBoundingBox" id="filter-4">
            <feMorphology radius="1.5" operator="dilate" in="SourceAlpha" result="shadowSpreadOuter1"></feMorphology>
            <feOffset dx="0" dy="2" in="shadowSpreadOuter1" result="shadowOffsetOuter1"></feOffset>
            <feGaussianBlur stdDeviation="2" in="shadowOffsetOuter1" result="shadowBlurOuter1"></feGaussianBlur>
            <feComposite in="shadowBlurOuter1" in2="SourceAlpha" operator="out" result="shadowBlurOuter1"></feComposite>
            <feColorMatrix values="0 0 0 0 0   0 0 0 0 0   0 0 0 0 0  0 0 0 0.5 0" type="matrix" in="shadowBlurOuter1"></feColorMatrix>
        </filter>
        <path d="M114.9642,24.7173 C110.128,35.5619 114.9987,48.2738 125.8434,53.11 C136.688,57.9462 149.3998,53.0755 154.2361,42.2308 C159.0724,31.3861 154.2016,18.6743 143.3569,13.8381 C132.5122,9.0019 119.8004,13.8727 114.9642,24.7173 Z" id="path-5"></path>
        <filter x="-19.8%" y="-15.1%" width="139.5%" height="139.5%" filterUnits="objectBoundingBox" id="filter-6">
            <feMorphology radius="1.5" operator="dilate" in="SourceAlpha" result="shadowSpreadOuter1"></feMorphology>
            <feOffset dx="0" dy="2" in="shadowSpreadOuter1" result="shadowOffsetOuter1"></feOffset>
            <feGaussianBlur stdDeviation="2" in="shadowOffsetOuter1" result="shadowBlurOuter1"></feGaussianBlur>
            <feComposite in="shadowBlurOuter1" in2="SourceAlpha" operator="out" result="shadowBlurOuter1"></feComposite>
            <feColorMatrix values="0 0 0 0 0   0 0 0 0 0   0 0 0 0 0  0 0 0 0.5 0" type="matrix" in="shadowBlurOuter1"></feColorMatrix>
        </filter>
        <path d="M46.6103,175.2831 L38.3228,214.2793 C36.8873,221.0322 41.1978,227.6694 47.9507,229.105 C48.8267,229.291 49.7007,229.3804 50.562,229.3804 C56.3374,229.3804 61.5268,225.3531 62.7759,219.4766 L72.1382,175.4258 L48.4163,175.4258 C47.8018,175.4257 47.202,175.3672 46.6103,175.2831 Z" id="path-7"></path>
        <filter x="-24.9%" y="-12.4%" width="150.9%" height="131.8%" filterUnits="objectBoundingBox" id="filter-8">
            <feMorphology radius="1.5" operator="dilate" in="SourceAlpha" result="shadowSpreadOuter1"></feMorphology>
            <feOffset dx="0" dy="2" in="shadowSpreadOuter1" result="shadowOffsetOuter1"></feOffset>
            <feGaussianBlur stdDeviation="2" in="shadowOffsetOuter1" result="shadowBlurOuter1"></feGaussianBlur>
            <feComposite in="shadowBlurOuter1" in2="SourceAlpha" operator="out" result="shadowBlurOuter1"></feComposite>
            <feColorMatrix values="0 0 0 0 0   0 0 0 0 0   0 0 0 0 0  0 0 0 1 0" type="matrix" in="shadowBlurOuter1"></feColorMatrix>
        </filter>
        <path d="M74.5647,149.8261 C74.0618,148.8844 73.4448,147.9964 72.7008,147.1967 L44.8063,117.2167 C44.692,116.8496 44.5724,116.4753 44.4446,116.0894 C40.7428,107.1913 38.9512,96.8644 37.9218,87.0009 L15.139,73.7612 C10.2279,70.9072 8.555,64.5908 11.4085,59.6801 C13.2454,56.5185 16.6605,54.5541 20.3206,54.5541 C22.1302,54.5541 23.9173,55.0365 25.4886,55.9496 L36.1986,62.1735 C35.2098,52.8893 28.9801,44.3157 21.0419,44.447 C12.245,44.5948 1.4849,52.2657 0.3983,67.7117 C-0.9708,88.9572 1.0043,102.0227 9.2346,122.8182 C14.1577,132.934 20.9212,135.5224 27.5316,135.3512 L42.4022,151.3337 C44.1966,150.3741 46.2431,149.8261 48.4164,149.8261 L74.5647,149.8261 L74.5647,149.8261 Z" id="path-9"></path>
        <filter x="-11.4%" y="-6.1%" width="123.9%" height="116.3%" filterUnits="objectBoundingBox" id="filter-10">
            <feMorphology radius="1.5" operator="dilate" in="SourceAlpha" result="shadowSpreadOuter1"></feMorphology>
            <feOffset dx="0" dy="2" in="shadowSpreadOuter1" result="shadowOffsetOuter1"></feOffset>
            <feGaussianBlur stdDeviation="2" in="shadowOffsetOuter1" result="shadowBlurOuter1"></feGaussianBlur>
            <feComposite in="shadowBlurOuter1" in2="SourceAlpha" operator="out" result="shadowBlurOuter1"></feComposite>
            <feColorMatrix values="0 0 0 0 0   0 0 0 0 0   0 0 0 0 0  0 0 0 1 0" type="matrix" in="shadowBlurOuter1"></feColorMatrix>
        </filter>
        <ellipse id="path-11" cx="47.0616328" cy="25.5037673" rx="22.5007273" ry="22.5006273"></ellipse>
        <filter x="-18.9%" y="-14.4%" width="137.8%" height="137.8%" filterUnits="objectBoundingBox" id="filter-12">
            <feMorphology radius="1.5" operator="dilate" in="SourceAlpha" result="shadowSpreadOuter1"></feMorphology>
            <feOffset dx="0" dy="2" in="shadowSpreadOuter1" result="shadowOffsetOuter1"></feOffset>
            <feGaussianBlur stdDeviation="2" in="shadowOffsetOuter1" result="shadowBlurOuter1"></feGaussianBlur>
            <feComposite in="shadowBlurOuter1" in2="SourceAlpha" operator="out" result="shadowBlurOuter1"></feComposite>
            <feColorMatrix values="0 0 0 0 0   0 0 0 0 0   0 0 0 0 0  0 0 0 1 0" type="matrix" in="shadowBlurOuter1"></feColorMatrix>
        </filter>
        <path d="M96.8407,108.8586 C96.7772,108.9786 96.7235,109.1013 96.6547,109.2197 C94.8168,112.3818 91.4018,114.3457 87.7416,114.3457 C85.933,114.3457 84.1459,113.8633 82.5746,112.9502 L67.294,104.0701 C66.8974,104.4221 66.5201,104.7672 66.1078,105.1247 C59.6835,110.6967 58.4545,116.1289 60.0575,120.8845 C60.3666,122.8088 61.2054,124.6709 62.6049,126.2285 L85.8695,152.126 L48.4163,152.126 C42.6175,152.126 37.9163,156.8272 37.9163,162.626 C37.9163,168.4248 42.6175,173.126 48.4163,173.126 L109.4163,173.126 C113.5608,173.126 117.3177,170.6875 119.0061,166.9024 C120.6936,163.1168 119.9973,158.6924 117.2278,155.6089 L91.3421,126.793 C92.8953,122.6391 95.0438,117.609 98.1963,111.9536 C97.549,111.0172 97.0894,109.9656 96.8407,108.8586 Z" id="path-13"></path>
        <filter x="-10.4%" y="-9.9%" width="120.7%" height="125.1%" filterUnits="objectBoundingBox" id="filter-14">
            <feMorphology radius="1.5" operator="dilate" in="SourceAlpha" result="shadowSpreadOuter1"></feMorphology>
            <feOffset dx="0" dy="2" in="shadowSpreadOuter1" result="shadowOffsetOuter1"></feOffset>
            <feGaussianBlur stdDeviation="2" in="shadowOffsetOuter1" result="shadowBlurOuter1"></feGaussianBlur>
            <feComposite in="shadowBlurOuter1" in2="SourceAlpha" operator="out" result="shadowBlurOuter1"></feComposite>
            <feColorMatrix values="0 0 0 0 0   0 0 0 0 0   0 0 0 0 0  0 0 0 0.5 0" type="matrix" in="shadowBlurOuter1"></feColorMatrix>
        </filter>
        <path d="M94.263,58.6078 C87.5555,66.328 91.0381,74.5963 81.5235,88.5133 L92.9241,95.1386 C94.7141,96.1789 96.068,97.6821 96.9353,99.4066 L98.2903,68.229 C98.4964,63.5088 102.3508,59.811 107.0657,59.811 C107.1995,59.811 107.3323,59.8139 107.4671,59.8198 C112.3118,60.0302 116.0843,64.1455 115.8743,68.9931 L114.73,95.3278 C123.8124,100.8935 129.0698,92.401 129.3596,86.0941 C130.2751,86.0377 131.0027,85.2845 131.0027,84.3548 C131.0027,83.3882 130.219,82.6048 129.2527,82.6048 C128.9929,82.6048 128.7488,82.6649 128.5271,82.7664 C127.2117,80.6134 124.4788,77.4008 121.6902,74.3371 C120.1643,70.9449 118.0662,66.5447 120.8587,58.0106 C114.8089,50.0718 103.4368,48.0461 94.263,58.6078 Z" id="path-15"></path>
        <filter x="-18.5%" y="-13.5%" width="135.7%" height="144.4%" filterUnits="objectBoundingBox" id="filter-16">
            <feMorphology radius="1.5" operator="dilate" in="SourceAlpha" result="shadowSpreadOuter1"></feMorphology>
            <feOffset dx="0" dy="2" in="shadowSpreadOuter1" result="shadowOffsetOuter1"></feOffset>
            <feGaussianBlur stdDeviation="2" in="shadowOffsetOuter1" result="shadowBlurOuter1"></feGaussianBlur>
            <feComposite in="shadowBlurOuter1" in2="SourceAlpha" operator="out" result="shadowBlurOuter1"></feComposite>
            <feColorMatrix values="0 0 0 0 0   0 0 0 0 0   0 0 0 0 0  0 0 0 0.5 0" type="matrix" in="shadowBlurOuter1"></feColorMatrix>
        </filter>
        <path d="M113.5765,68.8936 C113.7318,65.3072 110.9515,62.2735 107.3646,62.1177 C103.7513,61.9561 100.7445,64.7422 100.5882,68.3291 L98.9222,106.6621 C98.8451,108.4331 99.4954,110.1592 100.721,111.4394 C101.9476,112.7202 103.6439,113.4443 105.4163,113.4443 L148.0823,113.4443 C151.6721,113.4443 154.5823,110.5341 154.5823,106.9443 C154.5823,103.3545 151.6721,100.4443 148.0823,100.4443 L112.2053,100.4443 L113.5765,68.8936 Z" id="path-17"></path>
        <filter x="-15.3%" y="-12.7%" width="130.5%" height="133.1%" filterUnits="objectBoundingBox" id="filter-18">
            <feMorphology radius="1.5" operator="dilate" in="SourceAlpha" result="shadowSpreadOuter1"></feMorphology>
            <feOffset dx="0" dy="2" in="shadowSpreadOuter1" result="shadowOffsetOuter1"></feOffset>
            <feGaussianBlur stdDeviation="2" in="shadowOffsetOuter1" result="shadowBlurOuter1"></feGaussianBlur>
            <feComposite in="shadowBlurOuter1" in2="SourceAlpha" operator="out" result="shadowBlurOuter1"></feComposite>
            <feColorMatrix values="0 0 0 0 0   0 0 0 0 0   0 0 0 0 0  0 0 0 0.5 0" type="matrix" in="shadowBlurOuter1"></feColorMatrix>
        </filter>
        <path d="M83.7298,110.9614 C84.9944,111.6963 86.3773,112.0459 87.7415,112.0459 C90.4983,112.0459 93.181,110.6191 94.6663,108.064 C96.886,104.2442 95.5892,99.3477 91.7688,97.1275 L24.3333,57.9385 C20.513,55.7188 15.6165,57.0156 13.3968,60.836 C11.1771,64.6558 12.4739,69.5523 16.2943,71.7725 L83.7298,110.9614 Z" id="path-19"></path>
        <filter x="-10.2%" y="-11.8%" width="120.4%" height="130.8%" filterUnits="objectBoundingBox" id="filter-20">
            <feMorphology radius="1.5" operator="dilate" in="SourceAlpha" result="shadowSpreadOuter1"></feMorphology>
            <feOffset dx="0" dy="2" in="shadowSpreadOuter1" result="shadowOffsetOuter1"></feOffset>
            <feGaussianBlur stdDeviation="2" in="shadowOffsetOuter1" result="shadowBlurOuter1"></feGaussianBlur>
            <feComposite in="shadowBlurOuter1" in2="SourceAlpha" operator="out" result="shadowBlurOuter1"></feComposite>
            <feColorMatrix values="0 0 0 0 0   0 0 0 0 0   0 0 0 0 0  0 0 0 1 0" type="matrix" in="shadowBlurOuter1"></feColorMatrix>
        </filter>
    </defs>
    <g id="Page-2" stroke="none" stroke-width="1" fill="none" fill-rule="evenodd">
        <g id="sex-etsy-37" transform="translate(5.000000, 2.000000)" fill-rule="nonzero">
            <g id="Path">
                <use fill="black" fill-opacity="1" filter="url(#filter-2)" xlink:href="#path-1"></use>
                <use stroke="#1A1A1D" stroke-width="1" fill="#4E4E50" xlink:href="#path-1"></use>
            </g>
            <g id="Path">
                <use fill="black" fill-opacity="1" filter="url(#filter-4)" xlink:href="#path-3"></use>
                <use stroke="#1A1A1D" stroke-width="3" fill="#6F2232" xlink:href="#path-3"></use>
            </g>
            <g id="Path">
                <use fill="black" fill-opacity="1" filter="url(#filter-6)" xlink:href="#path-5"></use>
                <use stroke="#1A1A1D" stroke-width="3" fill="#6F2232" xlink:href="#path-5"></use>
            </g>
            <g id="Path">
                <use fill="black" fill-opacity="1" filter="url(#filter-8)" xlink:href="#path-7"></use>
                <use stroke="#1A1A1D" stroke-width="3" fill="#4E4E50" xlink:href="#path-7"></use>
            </g>
            <g id="Path">
                <use fill="black" fill-opacity="1" filter="url(#filter-10)" xlink:href="#path-9"></use>
                <use stroke="#1A1A1D" stroke-width="3" fill="#4E4E50" xlink:href="#path-9"></use>
            </g>
            <g id="Oval" transform="translate(47.061633, 25.503767) rotate(-84.307080) translate(-47.061633, -25.503767) ">
                <use fill="black" fill-opacity="1" filter="url(#filter-12)" xlink:href="#path-11"></use>
                <use stroke="#1A1A1D" stroke-width="3" fill="#4E4E50" xlink:href="#path-11"></use>
            </g>
            <g id="Path">
                <use fill="black" fill-opacity="1" filter="url(#filter-14)" xlink:href="#path-13"></use>
                <use stroke="#1A1A1D" stroke-width="3" fill="#6F2232" xlink:href="#path-13"></use>
            </g>
            <g id="Path">
                <use fill="black" fill-opacity="1" filter="url(#filter-16)" xlink:href="#path-15"></use>
                <use stroke="#1A1A1D" stroke-width="3" fill="#6F2232" xlink:href="#path-15"></use>
            </g>
            <g id="Path">
                <use fill="black" fill-opacity="1" filter="url(#filter-18)" xlink:href="#path-17"></use>
                <use stroke="#1A1A1D" stroke-width="3" fill="#6F2232" xlink:href="#path-17"></use>
            </g>
            <g id="Path">
                <use fill="black" fill-opacity="1" filter="url(#filter-20)" xlink:href="#path-19"></use>
                <use stroke="#1A1A1D" stroke-width="3" fill="#4E4E50" xlink:href="#path-19"></use>
            </g>
        </g>
    </g>
</svg>

<svg xmlns="http://www.w3.org/2000/svg" width="167" height="239" xmlns:xlink="http://www.w3.org/1999/xlink"><title>sex-etsy-37</title><defs><path id="b" d="M143.18 115.74l-14.26 61.53H73.9v5h2.76l-8.22 46.23 4.92.88L81 186.44h44.8l7.64 42.94 4.92-.88-8.22-46.23h2.75l15.4-66.54c-.07 0-.14 0-.22 0h-4.9z"/><filter id="a" width="118.9%" height="113.3%" x="-9.5%" y="-4.9%" filterUnits="objectBoundingBox"><feMorphology radius=".5" operator="dilate" in="SourceAlpha" result="shadowSpreadOuter1"/><feOffset dy="2" in="shadowSpreadOuter1" result="shadowOffsetOuter1"/><feGaussianBlur stdDeviation="2" in="shadowOffsetOuter1" result="shadowBlurOuter1"/><feComposite in="shadowBlurOuter1" in2="SourceAlpha" operator="out" result="shadowBlurOuter1"/><feColorMatrix values="0 0 0 0 0 0 0 0 0 0 0 0 0 0 0 0 0 0 1 0" in="shadowBlurOuter1"/></filter><path id="d" d="M114.56 20.63c-7.6-1.4-17.36-.14-23.6 15.74-6.16 15.6-12.4 15.86-16.5 13.92-4.1-1.96 2.75 10.3 16.76 4.24 10.8-4.67 12.8-24 20.26-26.7.34-1.37.8-2.73 1.38-4.06.5-1.1 1.07-2.15 1.7-3.15z"/><filter id="c" width="143.7%" height="147.2%" x="-20.6%" y="-18%" filterUnits="objectBoundingBox"><feMorphology radius="1.5" operator="dilate" in="SourceAlpha" result="shadowSpreadOuter1"/><feOffset dy="2" in="shadowSpreadOuter1" result="shadowOffsetOuter1"/><feGaussianBlur stdDeviation="2" in="shadowOffsetOuter1" result="shadowBlurOuter1"/><feComposite in="shadowBlurOuter1" in2="SourceAlpha" operator="out" result="shadowBlurOuter1"/><feColorMatrix values="0 0 0 0 0 0 0 0 0 0 0 0 0 0 0 0 0 0 0.5 0" in="shadowBlurOuter1"/></filter><path id="f" d="M114.96 24.72c-4.83 10.84.04 23.55 10.88 28.4 10.85 4.83 23.56-.04 28.4-10.9 4.83-10.83-.04-23.55-10.88-28.38-10.85-4.84-23.56.03-28.4 10.88z"/><filter id="e" width="139.5%" height="139.5%" x="-19.8%" y="-15.1%" filterUnits="objectBoundingBox"><feMorphology radius="1.5" operator="dilate" in="SourceAlpha" result="shadowSpreadOuter1"/><feOffset dy="2" in="shadowSpreadOuter1" result="shadowOffsetOuter1"/><feGaussianBlur stdDeviation="2" in="shadowOffsetOuter1" result="shadowBlurOuter1"/><feComposite in="shadowBlurOuter1" in2="SourceAlpha" operator="out" result="shadowBlurOuter1"/><feColorMatrix values="0 0 0 0 0 0 0 0 0 0 0 0 0 0 0 0 0 0 0.5 0" in="shadowBlurOuter1"/></filter><path id="h" d="M46.6 175.28l-8.28 39c-1.43 6.75 2.88 13.4 9.63 14.82.88.2 1.75.28 2.6.28 5.8 0 10.98-4.03 12.23-9.9l9.36-44.05H48.42c-.62 0-1.22-.06-1.8-.15z"/><filter id="g" width="150.9%" height="131.8%" x="-24.9%" y="-12.4%" filterUnits="objectBoundingBox"><feMorphology radius="1.5" operator="dilate" in="SourceAlpha" result="shadowSpreadOuter1"/><feOffset dy="2" in="shadowSpreadOuter1" result="shadowOffsetOuter1"/><feGaussianBlur stdDeviation="2" in="shadowOffsetOuter1" result="shadowBlurOuter1"/><feComposite in="shadowBlurOuter1" in2="SourceAlpha" operator="out" result="shadowBlurOuter1"/><feColorMatrix values="0 0 0 0 0 0 0 0 0 0 0 0 0 0 0 0 0 0 1 0" in="shadowBlurOuter1"/></filter><path id="j" d="M74.56 149.83c-.5-.95-1.12-1.83-1.86-2.63l-27.9-29.98c-.1-.37-.23-.74-.36-1.13-3.7-8.9-5.5-19.24-6.52-29.1L15.14 73.76c-4.9-2.85-6.6-9.17-3.73-14.08 1.85-3.16 5.26-5.13 8.92-5.13 1.8 0 3.6.5 5.17 1.4l10.7 6.22c-1-9.28-7.22-17.85-15.16-17.72C12.24 44.6 1.48 52.27.4 67.7c-1.37 21.26.6 34.32 8.83 55.12 4.93 10.1 11.7 12.7 18.3 12.53l14.87 15.98c1.8-.96 3.84-1.5 6.02-1.5h26.14z"/><filter id="i" width="123.9%" height="116.3%" x="-11.4%" y="-6.1%" filterUnits="objectBoundingBox"><feMorphology radius="1.5" operator="dilate" in="SourceAlpha" result="shadowSpreadOuter1"/><feOffset dy="2" in="shadowSpreadOuter1" result="shadowOffsetOuter1"/><feGaussianBlur stdDeviation="2" in="shadowOffsetOuter1" result="shadowBlurOuter1"/><feComposite in="shadowBlurOuter1" in2="SourceAlpha" operator="out" result="shadowBlurOuter1"/><feColorMatrix values="0 0 0 0 0 0 0 0 0 0 0 0 0 0 0 0 0 0 1 0" in="shadowBlurOuter1"/></filter><ellipse id="l" cx="47.062" cy="25.504" rx="22.501" ry="22.501"/><filter id="k" width="137.8%" height="137.8%" x="-18.9%" y="-14.4%" filterUnits="objectBoundingBox"><feMorphology radius="1.5" operator="dilate" in="SourceAlpha" result="shadowSpreadOuter1"/><feOffset dy="2" in="shadowSpreadOuter1" result="shadowOffsetOuter1"/><feGaussianBlur stdDeviation="2" in="shadowOffsetOuter1" result="shadowBlurOuter1"/><feComposite in="shadowBlurOuter1" in2="SourceAlpha" operator="out" result="shadowBlurOuter1"/><feColorMatrix values="0 0 0 0 0 0 0 0 0 0 0 0 0 0 0 0 0 0 1 0" in="shadowBlurOuter1"/></filter><path id="n" d="M96.84 108.86c-.06.12-.12.24-.2.36-1.82 3.16-5.24 5.13-8.9 5.13-1.8 0-3.6-.5-5.17-1.4l-15.28-8.88c-.4.35-.78.7-1.2 1.05-6.42 5.58-7.65 11-6.04 15.76.3 1.93 1.15 3.8 2.54 5.35l23.27 25.9H48.42c-5.8 0-10.5 4.7-10.5 10.5s4.7 10.5 10.5 10.5h61c4.14 0 7.9-2.44 9.6-6.23 1.67-3.78.98-8.2-1.8-11.3l-25.88-28.8c1.56-4.16 3.7-9.2 6.86-14.85-.65-.93-1.1-1.98-1.36-3.1z"/><filter id="m" width="120.7%" height="125.1%" x="-10.4%" y="-9.9%" filterUnits="objectBoundingBox"><feMorphology radius="1.5" operator="dilate" in="SourceAlpha" result="shadowSpreadOuter1"/><feOffset dy="2" in="shadowSpreadOuter1" result="shadowOffsetOuter1"/><feGaussianBlur stdDeviation="2" in="shadowOffsetOuter1" result="shadowBlurOuter1"/><feComposite in="shadowBlurOuter1" in2="SourceAlpha" operator="out" result="shadowBlurOuter1"/><feColorMatrix values="0 0 0 0 0 0 0 0 0 0 0 0 0 0 0 0 0 0 0.5 0" in="shadowBlurOuter1"/></filter><path id="p" d="M94.26 58.6c-6.7 7.73-3.22 16-12.74 29.9l11.4 6.64c1.8 1.04 3.15 2.54 4.02 4.27l1.35-31.17c.2-4.72 4.05-8.42 8.77-8.42.13 0 .26 0 .4.02 4.84.2 8.6 4.33 8.4 9.17l-1.14 26.33c9.08 5.56 14.34-2.93 14.63-9.24.92-.06 1.64-.82 1.64-1.75 0-.96-.78-1.75-1.75-1.75-.26 0-.5.06-.72.17-1.32-2.16-4.05-5.37-6.84-8.43-1.54-3.4-3.63-7.8-.84-16.33-6.05-7.93-17.42-9.95-26.6.6z"/><filter id="o" width="135.7%" height="144.4%" x="-18.5%" y="-13.5%" filterUnits="objectBoundingBox"><feMorphology radius="1.5" operator="dilate" in="SourceAlpha" result="shadowSpreadOuter1"/><feOffset dy="2" in="shadowSpreadOuter1" result="shadowOffsetOuter1"/><feGaussianBlur stdDeviation="2" in="shadowOffsetOuter1" result="shadowBlurOuter1"/><feComposite in="shadowBlurOuter1" in2="SourceAlpha" operator="out" result="shadowBlurOuter1"/><feColorMatrix values="0 0 0 0 0 0 0 0 0 0 0 0 0 0 0 0 0 0 0.5 0" in="shadowBlurOuter1"/></filter><path id="r" d="M113.58 68.9c.15-3.6-2.63-6.63-6.22-6.78-3.6-.16-6.62 2.62-6.77 6.2l-1.68 38.34c-.07 1.77.58 3.5 1.8 4.78 1.23 1.28 2.92 2 4.7 2h42.66c3.6 0 6.5-2.9 6.5-6.5s-2.9-6.5-6.5-6.5H112.2l1.38-31.55z"/><filter id="q" width="130.5%" height="133.1%" x="-15.3%" y="-12.7%" filterUnits="objectBoundingBox"><feMorphology radius="1.5" operator="dilate" in="SourceAlpha" result="shadowSpreadOuter1"/><feOffset dy="2" in="shadowSpreadOuter1" result="shadowOffsetOuter1"/><feGaussianBlur stdDeviation="2" in="shadowOffsetOuter1" result="shadowBlurOuter1"/><feComposite in="shadowBlurOuter1" in2="SourceAlpha" operator="out" result="shadowBlurOuter1"/><feColorMatrix values="0 0 0 0 0 0 0 0 0 0 0 0 0 0 0 0 0 0 0.5 0" in="shadowBlurOuter1"/></filter><path id="t" d="M83.73 110.96c1.26.74 2.65 1.1 4 1.1 2.77 0 5.45-1.44 6.94-4 2.22-3.82.92-8.7-2.9-10.93l-67.44-39.2c-3.82-2.2-8.7-.9-10.93 2.9-2.22 3.83-.93 8.72 2.9 10.94l67.43 39.2z"/><filter id="s" width="120.4%" height="130.8%" x="-10.2%" y="-11.8%" filterUnits="objectBoundingBox"><feMorphology radius="1.5" operator="dilate" in="SourceAlpha" result="shadowSpreadOuter1"/><feOffset dy="2" in="shadowSpreadOuter1" result="shadowOffsetOuter1"/><feGaussianBlur stdDeviation="2" in="shadowOffsetOuter1" result="shadowBlurOuter1"/><feComposite in="shadowBlurOuter1" in2="SourceAlpha" operator="out" result="shadowBlurOuter1"/><feColorMatrix values="0 0 0 0 0 0 0 0 0 0 0 0 0 0 0 0 0 0 1 0" in="shadowBlurOuter1"/></filter></defs><g fill="none"><g fill-rule="nonzero"><g id="Path" transform="translate(5 2)"><use fill="#000" filter="url(#a)" xlink:href="#b"/><use fill="#4E4E50" stroke="#1A1A1D" xlink:href="#b"/></g><g id="Path" transform="translate(5 2)"><use fill="#000" filter="url(#c)" xlink:href="#d"/><use fill="#6F2232" stroke="#1A1A1D" stroke-width="3" xlink:href="#d"/></g><g id="Path" transform="translate(5 2)"><use fill="#000" filter="url(#e)" xlink:href="#f"/><use fill="#6F2232" stroke="#1A1A1D" stroke-width="3" xlink:href="#f"/></g><g id="Path" transform="translate(5 2)"><use fill="#000" filter="url(#g)" xlink:href="#h"/><use fill="#4E4E50" stroke="#1A1A1D" stroke-width="3" xlink:href="#h"/></g><g id="Path" transform="translate(5 2)"><use fill="#000" filter="url(#i)" xlink:href="#j"/><use fill="#4E4E50" stroke="#1A1A1D" stroke-width="3" xlink:href="#j"/></g><g transform="translate(5 2) rotate(-84.307 47.062 25.504)"><use fill="#000" filter="url(#k)" xlink:href="#l"/><use fill="#4E4E50" stroke="#1A1A1D" stroke-width="3" xlink:href="#l"/></g><g id="Path" transform="translate(5 2)"><use fill="#000" filter="url(#m)" xlink:href="#n"/><use fill="#6F2232" stroke="#1A1A1D" stroke-width="3" xlink:href="#n"/></g><g id="Path" transform="translate(5 2)"><use fill="#000" filter="url(#o)" xlink:href="#p"/><use fill="#6F2232" stroke="#1A1A1D" stroke-width="3" xlink:href="#p"/></g><g id="Path" transform="translate(5 2)"><use fill="#000" filter="url(#q)" xlink:href="#r"/><use fill="#6F2232" stroke="#1A1A1D" stroke-width="3" xlink:href="#r"/></g><g transform="translate(5 2)"><use fill="#000" filter="url(#s)" xlink:href="#t"/><use fill="#4E4E50" stroke="#1A1A1D" stroke-width="3" xlink:href="#t"/></g></g></g></svg>
